X:25
T:Come hast to the Wedding. WCl.25
T:Haste To The Wedding,aka. WCl.25
T:Rural Felicity,aka. WCl.25
M:6/8
L:1/8
Q:3/8=120
S:William Clarke MS,Lincoln,1770.
R:.Jig
O:Lincoln
A:England
Z:vmp.Barry Callaghan
K:D
A|AFG Aaf|ede fdB|AFA BdF|EEE E2 A|!
AFG Aaf|ede fdB|AFA faf|ddd d2:|!
|:” cr”a|(af)a (af)a|(bg)b (bg)b|afa agf|eee e3|!
a3 f3|ede fdB|AFA faf|ddd d3:|

